src/assets/imgs/icons/wallet/ic_leasing.svg

<?xml version="1.0" encoding="UTF-8"?>
<svg width="32px" height="32px" viewBox="0 0 32 32" version="1.1" xmlns="http://www.w3.org/2000/svg" xmlns:xlink="http://www.w3.org/1999/xlink">
    <!-- Generator: Sketch 52.5 (67469) - http://www.bohemiancoding.com/sketch -->
    <title>ic_leasing_start</title>
    <desc>Created with Sketch.</desc>
    <g id="Export" stroke="none" stroke-width="1" fill="none" fill-rule="evenodd">
        <g id="ic_leasing_start">
            <circle id="Oval-2" fill="#B4E0A8" cx="16" cy="16" r="16"></circle>
            <path d="M15.9783823,25.0006166 C12.083546,24.9988694 8.63402503,22.4801127 7.43790071,18.7645637 C6.2417764,15.0490147 7.57187575,10.9841623 10.7310214,8.70061661 C10.8371188,8.61937308 10.9717505,8.58516659 11.1036441,8.60594264 C11.2355377,8.6267187 11.3532141,8.70066911 11.4293394,8.81061661 C11.5868395,9.03548633 11.5383172,9.34500856 11.3196037,9.51061661 C8.51881884,11.5455869 7.34468494,15.1575339 8.41176663,18.4558941 C9.47884831,21.7542542 12.544186,23.988037 16.0033222,23.988037 C19.4624583,23.988037 22.5277961,21.7542542 23.5948777,18.4558941 C24.6619594,15.1575339 23.4878255,11.5455869 20.6870407,9.51061661 C20.5796532,9.43255317 20.5077094,9.31482617 20.4871167,9.18346604 C20.466524,9.05210591 20.4989788,8.91793391 20.577305,8.81061661 C20.7425151,8.59137636 21.0512936,8.54273715 21.275623,8.70061661 C24.4423322,10.989522 25.7704967,15.0674097 24.5612197,18.7884443 C23.3519426,22.5094789 19.8824299,25.0206777 15.9783823,25.0006166 Z M16.3563,6.14258425 L18.8563,8.69868559 C19.0493,8.89580206 19.0473,9.21298949 18.8513,9.4071042 C18.7533,9.50216037 18.6263,9.55018875 18.5003,9.55018875 C18.3703,9.55018875 18.2413,9.50015918 18.1433,9.40110065 L16.5003,7.71551371 L16.5003,16.4997044 C16.5003,16.7768681 16.2763,17 16.0003,17 C15.7233,17 15.5003,16.7768681 15.5003,16.4997044 L15.5003,7.71551371 L13.8563,9.40110065 C13.6613,9.59721654 13.3453,9.59921772 13.1483,9.4071042 C12.9523,9.21298949 12.9503,8.89580206 13.1433,8.69868559 L15.6433,6.14258425 C15.8323,5.95247192 16.1683,5.95247192 16.3563,6.14258425 Z" id="Shape" fill="#FFFFFF"></path>
        </g>
    </g>
</svg>

<?xml version="1.0" encoding="utf-8"?>
<!-- Generator: Adobe Illustrator 23.0.1, SVG Export Plug-In . SVG Version: 6.00 Build 0)  -->
<svg version="1.1" id="图层_1" xmlns="http://www.w3.org/2000/svg" xmlns:xlink="http://www.w3.org/1999/xlink" x="0px" y="0px"
	 viewBox="0 0 32 32" style="enable-background:new 0 0 32 32;" xml:space="preserve">
<style type="text/css">
	.st0{fill-rule:evenodd;clip-rule:evenodd;fill:#59D877;}
	.st1{fill-rule:evenodd;clip-rule:evenodd;fill:#FFFFFF;}
</style>
<title>ic_leasing_start</title>
<desc>Created with Sketch.</desc>
<circle id="Oval-2" class="st0" cx="16" cy="16" r="16"/>
<path id="Shape" class="st1" d="M16,25c-3.9,0-7.3-2.5-8.5-6.2S7.6,11,10.7,8.7c0.1-0.1,0.2-0.1,0.4-0.1c0.1,0,0.2,0.1,0.3,0.2
	c0.2,0.2,0.1,0.5-0.1,0.7c-2.8,2-4,5.6-2.9,8.9S12.5,24,16,24s6.5-2.2,7.6-5.5s-0.1-6.9-2.9-8.9c-0.1-0.1-0.2-0.2-0.2-0.3
	s0-0.3,0.1-0.4c0.2-0.2,0.5-0.3,0.7-0.1c3.2,2.3,4.5,6.4,3.3,10.1C23.4,22.5,19.9,25,16,25z M16.4,6.1l2.5,2.6
	c0.2,0.2,0.2,0.5,0,0.7c-0.1,0.1-0.2,0.1-0.4,0.1c-0.1,0-0.3-0.1-0.4-0.1l-1.6-1.7v8.8c0,0.3-0.2,0.5-0.5,0.5
	c-0.3,0-0.5-0.2-0.5-0.5V7.7l-1.6,1.7c-0.2,0.2-0.5,0.2-0.7,0s-0.2-0.5,0-0.7l2.5-2.6C15.8,6,16.2,6,16.4,6.1z"/>
</svg>
